icons/ic_undo.svg

<svg width="24" height="24" viewBox="0 0 24 24" fill="none" xmlns="http://www.w3.org/2000/svg">
<g clip-path="url(#clip0-628994)">
<path d="M9 10H15C16.654 10 18 11.346 18 13C18 14.654 16.654 16 15 16H12V18H15C17.757 18 20 15.757 20 13C20 10.243 17.757 8 15 8H9V5L4 9L9 13V10Z" fill="#222532"/>
</g>
<defs>
<clipPath id="clip0-628994">
<rect width="24" height="24" fill="white"/>
</clipPath>
</defs>
</svg>

<?xml version="1.0" encoding="utf-8"?>
<!-- Generator: Adobe Illustrator 24.0.0, SVG Export Plug-In . SVG Version: 6.00 Build 0)  -->
<svg version="1.1" id="Layer_1" xmlns="http://www.w3.org/2000/svg" xmlns:xlink="http://www.w3.org/1999/xlink" x="0px" y="0px"
	 viewBox="0 0 24 24" style="enable-background:new 0 0 24 24;" xml:space="preserve">
<style type="text/css">
	.st0{clip-path:url(#SVGID_2_);}
</style>
<g>
	<defs>
		<rect id="SVGID_1_" width="24" height="24"/>
	</defs>
	<clipPath id="SVGID_2_">
		<use xlink:href="#SVGID_1_"  style="overflow:visible;"/>
	</clipPath>
	<g class="st0">
		<path d="M9,10h6c1.7,0,3,1.3,3,3s-1.3,3-3,3h-3v2h3c2.8,0,5-2.2,5-5s-2.2-5-5-5H9V5L4,9l5,4V10z"/>
	</g>
</g>
</svg>
